tools/download-figma-icons/icons/outlined-large/money-bag-100.svg

<svg width="64" height="65" viewBox="0 0 64 65" fill="none" xmlns="http://www.w3.org/2000/svg">
<path fill-rule="evenodd" clip-rule="evenodd" d="M32.0002 61.0017C44.3942 61.0017 52.5832 58.7397 56.3412 54.2797C58.7942 51.3687 59.5382 47.3497 58.6152 41.9947C56.5982 30.2817 44.6632 22.3127 42.5662 20.9947C42.5557 20.9951 42.5458 20.9966 42.5359 20.9981C42.5243 20.9999 42.5127 21.0017 42.5002 21.0017H21.5002C21.4882 21.0017 21.4766 20.9999 21.4648 20.9981C21.455 20.9966 21.4452 20.9951 21.4352 20.9947C19.3372 22.3127 7.4032 30.2817 5.3852 41.9947C4.4622 47.3497 5.2062 51.3687 7.6592 54.2797C11.4172 58.7397 19.6072 61.0017 32.0002 61.0017ZM33.9392 4.17568C31.5622 4.77868 29.1032 5.40168 26.4602 5.40168C23.3072 5.40168 19.9952 4.72668 17.5752 4.09168L21.8912 12.0017H42.2042L47.4662 4.22968C46.6802 3.85268 45.1942 3.35668 42.5192 3.07868C39.5052 2.76368 36.8002 3.44968 33.9392 4.17568ZM20.0002 16.5017C20.0002 17.3287 20.6732 18.0017 21.5002 18.0017H42.5002C43.3272 18.0017 44.0002 17.3287 44.0002 16.5017C44.0002 15.6747 43.3272 15.0017 42.5002 15.0017H21.5002C20.6732 15.0017 20.0002 15.6747 20.0002 16.5017ZM45.8012 19.5357C50.0732 22.5107 59.6472 30.3037 61.5722 41.4847C62.6532 47.7657 61.6932 52.5837 58.6352 56.2137C54.2192 61.4537 45.5072 64.0017 32.0002 64.0017C18.4932 64.0017 9.7812 61.4537 5.3652 56.2137C2.3082 52.5837 1.3472 47.7657 2.4282 41.4847C4.3542 30.3037 13.9272 22.5107 18.1992 19.5357C17.4612 18.7337 17.0002 17.6747 17.0002 16.5017C17.0002 14.9797 17.7632 13.6377 18.9222 12.8237L13.1842 2.30468C12.8842 1.75668 12.9562 1.08168 13.3632 0.607679C13.7722 0.134679 14.4292 -0.0333206 15.0152 0.176679C15.0762 0.199679 21.1692 2.40168 26.4602 2.40168C28.7292 2.40168 30.9022 1.85068 33.2012 1.26668L33.2219 1.26144C36.2044 0.506068 39.2824 -0.273472 42.8292 0.0936794C48.9142 0.727679 50.4512 2.48268 50.8302 3.20768C51.0852 3.69668 51.0512 4.28668 50.7422 4.74268L45.2012 12.9257C46.2872 13.7477 47.0002 15.0377 47.0002 16.5017C47.0002 17.6747 46.5392 18.7337 45.8012 19.5357ZM50.6868 47.8064C50.9788 47.6954 51.2738 47.5224 51.5658 47.2914C52.2158 46.7774 53.1598 46.8894 53.6728 47.5374C54.1868 48.1874 54.0768 49.1314 53.4268 49.6454C52.8938 50.0664 52.3298 50.3924 51.7508 50.6104C51.0628 50.8714 50.3518 50.9984 49.6468 50.9984C47.8708 50.9984 46.1258 50.1974 44.8608 48.7194C44.4118 48.1934 44.0458 47.6134 43.7578 47.0014H42.5008C41.6718 47.0014 41.0008 46.3294 41.0008 45.5014C41.0008 44.6734 41.6718 44.0014 42.5008 44.0014H43.0028C42.9838 43.6684 42.9838 43.3344 43.0028 43.0014H42.5008C41.6718 43.0014 41.0008 42.3294 41.0008 41.5014C41.0008 40.6734 41.6718 40.0014 42.5008 40.0014H43.7568C44.0448 39.3884 44.4118 38.8084 44.8608 38.2824C47.1358 35.6204 50.7358 35.2254 53.4258 37.3474C54.0758 37.8604 54.1868 38.8044 53.6738 39.4544C53.1618 40.1044 52.2178 40.2154 51.5668 39.7024C50.2558 38.6674 48.5768 38.8114 47.3738 40.0014H49.0558C49.8838 40.0014 50.5558 40.6734 50.5558 41.5014C50.5558 42.3294 49.8838 43.0014 49.0558 43.0014H46.0438C46.0128 43.3344 46.0128 43.6684 46.0438 44.0014H49.0558C49.8838 44.0014 50.5558 44.6734 50.5558 45.5014C50.5558 46.3294 49.8838 47.0014 49.0558 47.0014H47.3688C48.3008 47.9264 49.5458 48.2374 50.6868 47.8064ZM24.0629 47.4057C23.8269 47.6617 23.4089 48.0017 22.5099 48.0017C21.6109 48.0017 21.1909 47.6607 20.9539 47.4037C20.0289 46.4077 19.9629 44.3717 20.0159 43.6757C20.0229 43.5927 20.0219 43.5057 20.0149 43.4227C19.9559 42.7097 20.0029 40.6347 20.9349 39.6167C21.1749 39.3537 21.6009 39.0057 22.5159 39.0017C23.3849 38.9707 23.8069 39.3317 24.0419 39.5837C24.9839 40.5967 25.0429 42.7057 24.9879 43.4287C24.9809 43.5097 24.9819 43.5937 24.9879 43.6757C25.0419 44.3757 24.9829 46.4107 24.0629 47.4057ZM26.2489 37.5517C25.3109 36.5377 24.0259 36.0017 22.5299 36.0017H22.5039C20.9699 36.0077 19.6599 36.5607 18.7119 37.6017C16.8759 39.6217 16.9659 42.8047 17.0169 43.5597C16.9739 44.3087 16.9139 47.4477 18.7429 49.4317C19.6889 50.4587 20.9919 51.0017 22.5099 51.0017C24.0299 51.0017 25.3329 50.4587 26.2769 49.4307C28.1049 47.4417 28.0319 44.2967 27.9869 43.5517C28.0329 42.7977 28.1079 39.5637 26.2489 37.5517ZM36.0629 47.4057C35.8269 47.6617 35.4089 48.0017 34.5099 48.0017C33.6109 48.0017 33.1909 47.6607 32.9539 47.4037C32.0289 46.4077 31.9629 44.3717 32.0159 43.6757C32.0229 43.5927 32.0219 43.5057 32.0149 43.4227C31.9559 42.7097 32.0029 40.6347 32.9349 39.6167C33.1749 39.3537 33.6009 39.0057 34.5159 39.0017H34.5309C35.3999 39.0017 35.8089 39.3337 36.0419 39.5837C36.9839 40.5967 37.0429 42.7057 36.9879 43.4287C36.9809 43.5097 36.9819 43.5937 36.9879 43.6757C37.0419 44.3757 36.9829 46.4107 36.0629 47.4057ZM38.2489 37.5517C37.3109 36.5377 36.0259 36.0017 34.5299 36.0017H34.5039C32.9699 36.0077 31.6599 36.5607 30.7119 37.6017C28.8759 39.6217 28.9659 42.8047 29.0169 43.5597C28.9739 44.3087 28.9139 47.4477 30.7429 49.4317C31.6889 50.4587 32.9919 51.0017 34.5099 51.0017C36.0299 51.0017 37.3329 50.4587 38.2769 49.4307C40.1049 47.4417 40.0319 44.2967 39.9869 43.5517C40.0329 42.7977 40.1079 39.5637 38.2489 37.5517ZM15.1156 36.1332C14.5766 35.8902 13.9476 35.9872 13.5056 36.3792L9.5056 39.9262C8.8856 40.4762 8.8286 41.4232 9.3786 42.0432C9.9266 42.6612 10.8756 42.7222 11.4956 42.1702L13.0006 40.8362V49.5012C13.0006 50.3292 13.6726 51.0012 14.5006 51.0012C15.3286 51.0012 16.0006 50.3292 16.0006 49.5012V37.5012C16.0006 36.9102 15.6536 36.3752 15.1156 36.1332Z" fill="black"/>
</svg>

<svg width="64" height="65" viewBox="0 0 64 65" fill="none" xmlns="http://www.w3.org/2000/svg"><path fill-rule="evenodd" clip-rule="evenodd" d="M32 61.002c12.394 0 20.583-2.262 24.341-6.722 2.453-2.911 3.197-6.93 2.274-12.285-2.017-11.713-13.952-19.682-16.049-21l-.03.003c-.012.002-.023.004-.036.004h-21c-.012 0-.023-.002-.035-.004l-.03-.003c-2.098 1.318-14.032 9.287-16.05 21-.923 5.355-.179 9.374 2.274 12.285 3.758 4.46 11.948 6.722 24.341 6.722Zm1.94-56.826c-2.378.603-4.837 1.226-7.48 1.226-3.153 0-6.465-.675-8.885-1.31l4.316 7.91h20.313l5.262-7.772c-.786-.377-2.272-.873-4.947-1.151-3.014-.315-5.719.37-8.58 1.097ZM20 16.502c0 .827.673 1.5 1.5 1.5h21c.827 0 1.5-.673 1.5-1.5s-.673-1.5-1.5-1.5h-21c-.827 0-1.5.673-1.5 1.5Zm25.801 3.034c4.272 2.975 13.846 10.768 15.771 21.949 1.081 6.28.121 11.099-2.937 14.729-4.416 5.24-13.128 7.788-26.635 7.788-13.507 0-22.219-2.548-26.635-7.788-3.057-3.63-4.018-8.448-2.937-14.73 1.926-11.18 11.5-18.973 15.771-21.948A4.465 4.465 0 0 1 17 16.502a4.49 4.49 0 0 1 1.922-3.678l-5.738-10.52A1.499 1.499 0 0 1 15.015.178C15.076.2 21.17 2.402 26.46 2.402c2.27 0 4.442-.551 6.741-1.135l.02-.006C36.205.506 39.283-.273 42.83.094c6.085.634 7.622 2.389 8.001 3.114a1.5 1.5 0 0 1-.088 1.535l-5.54 8.183c1.085.822 1.798 2.112 1.798 3.576a4.465 4.465 0 0 1-1.199 3.034Zm4.886 28.27c.292-.11.587-.284.879-.515a1.501 1.501 0 0 1 1.86 2.354 6.303 6.303 0 0 1-1.675.965 5.922 5.922 0 0 1-2.104.388c-1.776 0-3.521-.8-4.786-2.279a7.67 7.67 0 0 1-1.103-1.718H42.5a1.5 1.5 0 1 1 0-3h.502a8.78 8.78 0 0 1 0-1H42.5a1.5 1.5 0 1 1 0-3h1.256a7.658 7.658 0 0 1 1.104-1.719c2.275-2.662 5.875-3.057 8.565-.935a1.5 1.5 0 0 1-1.86 2.355c-1.31-1.035-2.99-.89-4.192.3h1.682a1.5 1.5 0 0 1 0 3h-3.012a5.388 5.388 0 0 0 0 1h3.012a1.5 1.5 0 0 1 0 3h-1.687c.932.924 2.177 1.235 3.318.804Zm-26.624-.4c-.236.256-.654.596-1.553.596-.9 0-1.32-.341-1.556-.598-.925-.996-.991-3.032-.938-3.728.007-.083.006-.17-.001-.253-.06-.713-.012-2.788.92-3.806.24-.263.666-.611 1.58-.615.87-.031 1.292.33 1.527.582.942 1.013 1 3.122.946 3.845a1.567 1.567 0 0 0 0 .247c.054.7-.005 2.735-.925 3.73Zm2.186-9.854c-.938-1.014-2.223-1.55-3.72-1.55h-.025c-1.534.006-2.844.559-3.792 1.6-1.836 2.02-1.746 5.203-1.695 5.958-.043.749-.103 3.888 1.726 5.872.946 1.027 2.249 1.57 3.767 1.57 1.52 0 2.823-.543 3.767-1.571 1.828-1.99 1.755-5.134 1.71-5.88.046-.753.12-3.987-1.738-6Zm9.814 9.854c-.236.256-.654.596-1.553.596-.9 0-1.32-.341-1.556-.598-.925-.996-.991-3.032-.938-3.728.007-.083.006-.17-.001-.253-.06-.713-.012-2.788.92-3.806.24-.263.666-.611 1.58-.615h.016c.869 0 1.278.332 1.51.582.943 1.013 1.002 3.122.947 3.845a1.567 1.567 0 0 0 0 .247c.054.7-.005 2.735-.925 3.73Zm2.186-9.854c-.938-1.014-2.223-1.55-3.72-1.55h-.025c-1.534.006-2.844.559-3.792 1.6-1.836 2.02-1.746 5.203-1.695 5.958-.043.749-.103 3.888 1.726 5.872.946 1.027 2.249 1.57 3.767 1.57 1.52 0 2.823-.543 3.767-1.571 1.828-1.99 1.755-5.134 1.71-5.88.046-.753.12-3.987-1.738-6Zm-23.133-1.419a1.497 1.497 0 0 0-1.61.246l-4 3.547a1.499 1.499 0 1 0 1.99 2.244L13 40.836v8.665a1.5 1.5 0 0 0 3 0v-12a1.5 1.5 0 0 0-.885-1.368Z" fill="currentColor"/></svg>
